assets/svg/shop-collect.svg

<?xml version="1.0" encoding="UTF-8"?>
<svg width="1000px" height="1000px" viewBox="0 0 1000 1000" version="1.1" xmlns="http://www.w3.org/2000/svg" xmlns:xlink="http://www.w3.org/1999/xlink">
    <!-- Generator: sketchtool 52.4 (67378) - http://www.bohemiancoding.com/sketch -->
    <title>shop-collect</title>
    <desc>Created with sketchtool.</desc>
    <g id="新版图标" stroke="none" stroke-width="1" fill="none" fill-rule="evenodd">
        <g id="shop-collect" fill="#323233">
            <g id="圆角--店铺收藏-面">
                <path d="M194.444444,888.888889 L610.611111,888.888889 C610.887253,888.888889 611.111111,889.112747 611.111111,889.388889 L611.111111,943.944444 C611.111111,944.220587 610.887253,944.444444 610.611111,944.444444 L139.388889,944.444444 C139.250818,944.444444 139.125818,944.38848 139.035335,944.297998 C138.944853,944.207516 138.888889,944.082516 138.888889,943.944444 L138.888889,588.814079 C89.0720872,559.996593 55.5555556,506.134622 55.5555556,444.444444 L150.793651,166.666667 L849.206349,166.666667 L944.444444,444.444444 C944.444444,536.491903 869.825236,611.111111 777.777778,611.111111 C719.806359,611.111111 668.747804,581.51362 638.888875,536.605399 C609.029957,581.51363 557.97141,611.111111 500,611.111111 C442.028581,611.111111 390.970026,581.51362 361.111097,536.605399 C331.252179,581.51363 280.193632,611.111111 222.222222,611.111111 C212.757994,611.111111 203.478013,610.322256 194.444444,608.80671 L194.444444,888.888889 Z M167.166667,55.5555556 L832.833333,55.5555556 C833.109476,55.5555556 833.333333,55.7794132 833.333333,56.0555556 L833.333333,110.611111 C833.333333,110.887253 833.109476,111.111111 832.833333,111.111111 L167.166667,111.111111 C166.890524,111.111111 166.666667,110.887253 166.666667,110.611111 L166.666667,56.0555556 C166.666667,55.7794132 166.890524,55.5555556 167.166667,55.5555556 Z M888.775216,757.985308 L916.552994,757.985308 C916.552994,768.950582 914.260318,780.091541 910.038616,791.401999 C908.398433,796.144947 906.36466,800.890283 901.092058,810.196486 C902.498153,808.217544 902.498153,808.217544 902.695132,807.860216 C902.671415,807.900178 902.671415,807.900178 903.581307,806.232593 L902.958566,807.424487 C903.082394,807.225585 903.082394,807.225585 902.524062,808.354773 C901.2181,810.944309 899.925697,813.341079 899.065986,814.595345 C897.09907,818.046575 894.969826,821.521386 892.683436,825.021314 C880.161412,844.189601 863.086285,863.937063 842.514,884.074859 C828.133843,898.151304 812.845594,911.638671 797.355341,924.309015 C788.15322,931.835943 770.904117,945.19816 775.592643,941.450886 C768.19109,947.315202 759.118553,950.486126 749.76634,950.486126 C740.497316,950.486126 731.502777,947.42625 723.962983,941.496919 C728.823196,945.366963 711.395416,931.907643 702.214717,924.417731 C686.755165,911.805326 671.51143,898.380527 657.170512,884.351443 C635.963273,863.60534 618.483659,843.247905 605.876579,823.462114 C600.133521,814.44885 595.436417,805.596018 591.828742,796.742121 C591.579918,796.109841 591.579918,796.109841 591.431006,795.709528 C586.265595,782.67826 583.548048,770.071368 583.548048,757.960166 C583.38975,755.842688 583.333333,754.477347 583.333333,752.60475 C583.333333,690.228509 631.699107,638.888889 692.045954,638.888889 C712.781304,638.888889 732.822091,645.190015 749.994242,656.613422 C767.144545,645.189319 787.194995,638.888889 807.954046,638.888889 C868.28507,638.888889 916.666667,690.250147 916.666667,752.60475 C916.624901,755.137591 916.623317,755.233703 916.533403,756.782077 C916.539105,757.084435 916.544964,757.464417 916.552994,757.985308 L888.775216,757.985308 Z" id="Combined-Shape"></path>
            </g>
        </g>
    </g>
</svg>

<svg width="1000" height="1000" xmlns="http://www.w3.org/2000/svg"><path d="M194.444 888.889h416.167a.5.5 0 0 1 .5.5v54.555a.5.5 0 0 1-.5.5H139.39a.498.498 0 0 1-.5-.5v-355.13c-49.817-28.817-83.333-82.68-83.333-144.37l95.238-277.777h698.412l95.238 277.777c0 92.048-74.619 166.667-166.666 166.667-57.972 0-109.03-29.597-138.89-74.506-29.858 44.909-80.917 74.506-138.888 74.506-57.971 0-109.03-29.597-138.889-74.506-29.859 44.909-80.917 74.506-138.889 74.506-9.464 0-18.744-.789-27.778-2.304v280.082zM167.167 55.556h665.666a.5.5 0 0 1 .5.5v54.555a.5.5 0 0 1-.5.5H167.167a.5.5 0 0 1-.5-.5V56.056a.5.5 0 0 1 .5-.5zm721.608 702.43h27.778c0 10.965-2.293 22.106-6.514 33.416-1.64 4.743-3.674 9.488-8.947 18.794 1.406-1.978 1.406-1.978 1.603-2.336-.024.04-.024.04.886-1.627l-.622 1.191c.123-.198.123-.198-.435.93-1.306 2.59-2.598 4.987-3.458 6.241a201.646 201.646 0 0 1-6.383 10.426c-12.522 19.169-29.597 38.916-50.169 59.054-14.38 14.076-29.668 27.564-45.159 40.234-9.202 7.527-26.45 20.89-21.762 17.142-7.402 5.864-16.474 9.035-25.827 9.035-9.269 0-18.263-3.06-25.803-8.99 4.86 3.871-12.568-9.588-21.748-17.078-15.46-12.613-30.704-26.037-45.044-40.067-21.208-20.746-38.687-41.103-51.294-60.889-5.743-9.013-10.44-17.866-14.048-26.72-.25-.632-.25-.632-.398-1.032-5.165-13.032-7.883-25.639-7.883-37.75-.158-2.117-.215-3.483-.215-5.355 0-62.376 48.366-113.716 108.713-113.716 20.735 0 40.776 6.301 57.948 17.724 17.15-11.424 37.201-17.724 57.96-17.724 60.331 0 108.713 51.361 108.713 113.716-.042 2.533-.044 2.629-.134 4.177l.02 1.203h-27.778z" fill="#323233" fill-rule="evenodd"/></svg>
